X:1
T: Benjamin's Birth Day
N:
C:
S:
A:
O:
R:
M:4/4
K:A
I:speed 200
%W: A1
% voice 1 (1 lines, 32 notes)
K:A
M:4/4
L:1/16
e2 d2 |c8 e8 |f4 d4 B4 G4 |c4 e4 c4 a2 g2 |f4 e4 e8 |f8 c8 |e4 c4 B4 G4 |F4 A4 G4 c2 B2 |A4 F4 F4 e2 d2 |
%W: A2
% voice 1 (1 lines, 30 notes)
c8 e8 |f4 d4 B4 G4 |c4 e4 c4 a2 g2 |f4 e4 e8 |f8 c8 |e4 c4 B4 G4 |F4 A4 G4 c2 B2 |A4 F4 F4 A2 G2 |
%W: B1
% voice 1 (1 lines, 31 notes)
F8 A4 B4 |c4 B4 c4 A2 G2 |F8 A4 B4 |c4 e4 e4 E4 |A4 c4 e8 |d4 c4 B4 d4 |c4 A4 E4 G4 |A4 A4 =G4 A2 G2 |
%W: B2
% voice 1 (1 lines, 27 notes)
F8 A4 B4 |c4 B4 c4 A2 G2 |F8 A4 B4 |c4 e4 e4 E4 |A4 c4 e8 |d4 c4 B4 d4 |c4 A4 E4 G4 |A12 ||
